!!!COA:	Josquin des Prez
!!!CDT:	~1450-1521/08/27
!!!COM:	Comp&egrave;re, Loyset
!!!CDT2:	~1445///-1518///
!!!OPR:	Missa L'homme arm&eacute; quarti toni
!!!ONM:	1
!!!OTL:	Kyrie
!!!AGN:	Mass; Kyrie
!!!SCT:	NJE 6.1
!!!SCA:	New Josquin Edition 6.1
!!!voices:	4
!!!voices-OPR:	4
**kern	**text	**kern	**text	**kern	**text	**kern	**text
*staff4	*staff4	*staff3	*staff3	*staff2	*staff2	*staff1	*staff1
*Ivox	*	*Ivox	*	*Ivox	*	*Ivox	*
*I"Bassus	*	*I"Tenor	*	*I"Altus	*	*I"Superius	*
*I'B	*	*I'T	*	*I'A	*	*I'S	*
*>[A,B,C]	*>[A,B,C]	*>[A,B,C]	*>[A,B,C]	*>[A,B,C]	*>[A,B,C]	*>[A,B,C]	*>[A,B,C]
*>A	*>A	*>A	*>A	*>A	*>A	*>A	*>A
*clefF4	*	*clefGv2	*	*clefGv2	*	*clefG2	*
*k[]	*	*k[]	*	*k[]	*	*k[]	*
*M3/1	*	*M3/1	*	*M3/1	*	*M3/1	*
*met(O)	*	*met(O)	*	*met(O)	*	*met(O)	*
=1-	=1-	=1-	=1-	=1-	=1-	=1-	=1-
0E	Ky-	0E	Ky-	0B	Ky-	[0.e	Ky-
[1AA	.	1E	-ri-	[1c	.	.	.
=2	=2	=2	=2	=2	=2	=2	=2
1AA]	.	0A	-e	1c]	.	1e]	.
0D	.	.	.	0d	.	0f	.
.	.	1A	e-	.	.	.	.
=3	=3	=3	=3	=3	=3	=3	=3
1GG	.	1G	-le-	2d\	.	1g	.
.	.	.	.	2e\	.	.	.
0D	-ri-	0F	.	2f\	.	2a/	.
.	.	.	.	2.d\	.	2.f/	.
.	.	.	.	8c\L	.	4e/	.
.	.	.	.	8B\J	.	.	.
.	.	.	.	[2A/	.	2d/	.
=4	=4	=4	=4	=4	=4	=4	=4
1AA	-e	2E/	.	2A/]	.	2.c/	.
.	.	1A	.	2.c\	.	.	.
.	.	.	.	.	.	4d/	.
1r	.	.	.	.	.	2e/	.
.	.	.	.	4B\	.	.	.
.	.	2G/	.	2B\	.	1e	-ri-
1D	Ky-	1F	-i-	2.A/	-ri-	.	.
.	.	.	.	.	.	2d/	.
.	.	.	.	4G/	.	.	.
=5	=5	=5	=5	=5	=5	=5	=5
1G	.	0.E	-son.	1B	-e	0e	-e
4G\	.	.	.	2r	.	.	.
4F\	.	.	.	.	.	.	.
4E\	.	.	.	1G	Ky-	.	.
4D\	.	.	.	.	.	.	.
2C/	.	.	.	.	.	1e	Ky-
2AA/	.	.	.	[2A/	.	.	.
=6	=6	=6	=6	=6	=6	=6	=6
2.D\	.	0.r	.	4A/]	.	2f/	.
.	.	.	.	4G/	.	.	.
.	.	.	.	4F/	.	2.d/	.
4C/	.	.	.	4E/	.	.	.
4BB/	.	.	.	2D/	.	.	.
4AA/	.	.	.	.	.	4c/	.
2GG/	.	.	.	1G	.	2B/	.
1AA	-ri-	.	.	.	.	1A	.
.	.	.	.	2F#i/	-ri-	.	.
=7	=7	=7	=7	=7	=7	=7	=7
0GG	-e	1B	Ky-	1G	-e	0d	.
.	.	1B	-ri-	2r	.	.	.
.	.	.	.	1G	Ky-	.	.
1C	Ky-	1E	-e	.	.	1e	-ri-
.	.	.	.	4F/	.	.	.
.	.	.	.	4E/	.	.	.
=8	=8	=8	=8	=8	=8	=8	=8
1D	.	1r	.	1A	.	1f	-e
0E	.	1B	Ky-	2G/	-ri-	0g	.
.	.	.	.	2E/	.	.	.
.	.	1B	-ri-	1e	.	.	.
=9	=9	=9	=9	=9	=9	=9	=9
1G	-ri-	1B	-e	0d	-e	2r	.
.	.	.	.	.	.	2d/	e-
1D	-e	0A	le-	.	.	2.f/	-le-
.	.	.	.	.	.	4g/	.
2.AA/	le-	.	.	2r	.	2a/	.
.	.	.	.	[2c\	e-	[2e/	.
4BB/	.	.	.	.	.	.	.
=10	=10	=10	=10	=10	=10	=10	=10
4C/	.	1G	.	2c\]	.	4e/]	.
4D\	.	.	.	.	.	4f/	.
2E\	.	.	.	2B\	.	2g/	.
2F\	.	0F	-i-	2A/	.	2c/	.
2.D\	.	.	.	1d	.	2.f/	.
8C/L	.	.	.	.	.	4g/	.
8BB/J	.	.	.	.	.	.	.
[2AA/	.	.	.	2c\	.	4a/	.
.	.	.	.	.	.	4b\	.
=11	=11	=11	=11	=11	=11	=11	=11
2AA/]	.	[0.El	-son.	2A/	.	2cc\	.
2GG/	.	.	.	2B\	.	2.b\	.
1AA	-i-	.	.	2.c\	-le-	.	.
.	.	.	.	.	.	4a/	.
.	.	.	.	.	.	1a	.
.	.	.	.	8B/L	.	.	.
.	.	.	.	8A/J	.	.	.
1r	.	.	.	1B	-i-	.	.
.	.	.	.	.	.	2g#i/	-i-
=12	=12	=12	=12	=12	=12	=12	=12
0.AAl	-son.	0.E]	.	0.Al	-son.	0.al	-son.
!!LO:LB:i:g=z
=13||	=13||	=13||	=13||	=13||	=13||	=13||	=13||
*>B	*>B	*>B	*>B	*>B	*>B	*>B	*>B
*clefF4	*	*clefGv2	*	*clefGv2	*	*clefG2	*
*k[]	*	*k[]	*	*k[]	*	*k[]	*
*M2/1	*	*M2/1	*	*M2/1	*	*M2/1	*
*met(C|)	*	*met(C|)	*	*met(C|)	*	*met(C|)	*
!!section: Christe
!!!OMD: Christe
0r	.	0r	.	1.E	Chri-	0r	.
.	.	.	.	2F/	.	.	.
=14	=14	=14	=14	=14	=14	=14	=14
1r	.	0r	.	1G	.	0r	.
[1AA	Chri-	.	.	[1A	.	.	.
=15	=15	=15	=15	=15	=15	=15	=15
2AA/]	.	0r	.	2A/]	.	0r	.
2BB/	.	.	.	4G/	.	.	.
.	.	.	.	4F/	.	.	.
1C	.	.	.	1E	.	.	.
=16	=16	=16	=16	=16	=16	=16	=16
1.D	.	0r	.	2D/	.	0r	.
.	.	.	.	2.A/	.	.	.
.	.	.	.	4G/	.	.	.
4C/	.	.	.	[2G/	.	.	.
4BB/	.	.	.	.	.	.	.
=17	=17	=17	=17	=17	=17	=17	=17
1AA	.	0r	.	2G/]	.	0r	.
.	.	.	.	2F#i/	.	.	.
2GG/	.	.	.	2.G/	.	.	.
2C/	.	.	.	.	.	.	.
.	.	.	.	4A/	.	.	.
=18	=18	=18	=18	=18	=18	=18	=18
2D\	.	0r	.	2B\	.	0r	.
2E\	.	.	.	2.c\	.	.	.
1AA	.	.	.	.	.	.	.
.	.	.	.	4B\	.	.	.
.	.	.	.	[2A/	.	.	.
=19	=19	=19	=19	=19	=19	=19	=19
1BB	.	0r	.	2A/]	.	0r	.
.	.	.	.	2G#i/	.	.	.
1AA	.	.	.	[1A	.	.	.
=20	=20	=20	=20	=20	=20	=20	=20
2.C/	.	0r	.	2A/]	.	0r	.
.	.	.	.	4G/	.	.	.
4D\	.	.	.	4F/	.	.	.
2E\	.	.	.	2E/	.	.	.
[2F\	.	.	.	2D/	.	.	.
=21	=21	=21	=21	=21	=21	=21	=21
4F\]	.	0r	.	1G	.	0r	.
4E\	.	.	.	.	.	.	.
1E	.	.	.	.	.	.	.
.	.	.	.	1F	.	.	.
2D\	.	.	.	.	.	.	.
=22	=22	=22	=22	=22	=22	=22	=22
[0E	-ste	1r	.	1E	-ste	0r	.
.	.	[1e	Chri-	1r	.	.	.
=23	=23	=23	=23	=23	=23	=23	=23
0E]	.	1e]	.	2.G/	Chri-	0r	.
.	.	.	.	4A/	.	.	.
.	.	1e	-ste	2B\	.	.	.
.	.	.	.	2c\	.	.	.
=24	=24	=24	=24	=24	=24	=24	=24
0r	.	0d	e-	2B\	.	0r	.
.	.	.	.	1G	.	.	.
.	.	.	.	4F/	.	.	.
.	.	.	.	4E/	.	.	.
=25	=25	=25	=25	=25	=25	=25	=25
0r	.	1d	-le-	2D/	.	1r	.
.	.	.	.	2G/	.	.	.
.	.	[1e	.	1C	-ste	2.g/	Chri-
.	.	.	.	.	.	4a/	.
=26	=26	=26	=26	=26	=26	=26	=26
0r	.	1e]	.	0r	.	2b\	.
.	.	.	.	.	.	2cc\	.
.	.	1e	-i-	.	.	2b\	.
.	.	.	.	.	.	[2g/	.
=27	=27	=27	=27	=27	=27	=27	=27
2r	.	0B	-son.	1r	.	2g/]	.
1G	Chri-	.	.	.	.	4f/	.
.	.	.	.	.	.	4e/	.
.	.	.	.	2r	.	2d/	.
4F\	.	.	.	2G/	Chri-	2g/	.
4E\	.	.	.	.	.	.	.
=28	=28	=28	=28	=28	=28	=28	=28
2D\	.	0r	.	2A/	.	2f/	.
2G\	.	.	.	2B\	.	2g/	.
1C	-ste	.	.	[1c	.	2.e/	.
.	.	.	.	.	.	4f/	.
=29	=29	=29	=29	=29	=29	=29	=29
0r	.	0r	.	2c\]	.	2g/	.
.	.	.	.	4B\	.	1a	.
.	.	.	.	4A/	.	.	.
.	.	.	.	1B	.	.	.
.	.	.	.	.	.	2g/	.
=30	=30	=30	=30	=30	=30	=30	=30
0r	.	0e	Chri-	2A/	.	2a/	.
.	.	.	.	2G/	.	2b\	.
.	.	.	.	2.A/	.	2.cc\	.
.	.	.	.	4B\	.	4b\	.
=31	=31	=31	=31	=31	=31	=31	=31
0r	.	1e	-ste	1c	.	2g/	.
.	.	.	.	.	.	1a	.
.	.	[1d	e-	2B\	.	.	.
.	.	.	.	2G/	.	[2g/	.
=32	=32	=32	=32	=32	=32	=32	=32
1D	e-	1d]	.	1A	.	2g/]	.
.	.	.	.	.	.	2f#i/	.
1G	.	1d	-le-	1G	-ste	[1g	-ste
=33	=33	=33	=33	=33	=33	=33	=33
1.C	-le-	0e	.	0c	e-	0g_	.
2D\	.	.	.	.	.	.	.
=34	=34	=34	=34	=34	=34	=34	=34
1.E	.	1e	-i-	1B	.	0g_	.
.	.	[1B	-son.	[1e	-le-	.	.
2F\	.	.	.	.	.	.	.
=35	=35	=35	=35	=35	=35	=35	=35
1G	.	1B]	.	2e\]	.	1g]	.
.	.	.	.	1d	.	.	.
[1D	.	1r	.	.	.	[1f	e-
.	.	.	.	4c\	.	.	.
.	.	.	.	4B\	.	.	.
=36	=36	=36	=36	=36	=36	=36	=36
1D]	.	0r	.	1A	.	1f]	.
2.E\	.	.	.	2.G/	.	2.g/	-le-
4F\	.	.	.	4A/	.	4f/	.
=37	=37	=37	=37	=37	=37	=37	=37
2G\	.	0r	.	2B\	.	4e/	.
.	.	.	.	.	.	4d/	.
2A\	.	.	.	2c\	.	1f	.
2F\	.	.	.	2A/	.	.	.
2G\	.	.	.	[2B\	.	[2e/	.
=38	=38	=38	=38	=38	=38	=38	=38
1D	.	1r	.	4B\]	.	4e/]	.
.	.	.	.	4A/	.	4d/	.
.	.	.	.	1A	.	1d	.
1E	-i-	1e	e-	.	.	.	.
.	.	.	.	2G/	.	2c#i/	-i-
=39	=39	=39	=39	=39	=39	=39	=39
0D	-son.	0f	-le-	1A	.	0d	-son.
.	.	.	.	1B	.	.	.
=40	=40	=40	=40	=40	=40	=40	=40
1C	e-	1e	.	1c	.	[0gl	.
1GG	.	1d	.	1B	-i-	.	.
=41	=41	=41	=41	=41	=41	=41	=41
1.C	-le-	0c	-i-	[0el	-son.	0g_	.
2D\	-i-	.	.	.	.	.	.
=42	=42	=42	=42	=42	=42	=42	=42
0El	-son.	0Bl	-son.	0e]	.	0g]	.
!!LO:LB:i:g=z
=43||	=43||	=43||	=43||	=43||	=43||	=43||	=43||
*>C	*>C	*>C	*>C	*>C	*>C	*>C	*>C
*clefF4	*	*clefGv2	*	*clefGv2	*	*clefG2	*
*k[]	*	*k[]	*	*k[]	*	*k[]	*
*M3/1	*	*M3/1	*	*M3/1	*	*M3/1	*
*met(O|)	*	*met(O|)	*	*met(O|)	*	*met(O|)	*
!!section: Kyrie II
!!!OMD: Kyrie II
0.r	.	0E	Ky-	0.r	.	0.r	.
.	.	1E	-ri-	.	.	.	.
=44	=44	=44	=44	=44	=44	=44	=44
0.r	.	0A	-e	0A	Ky-	0.r	.
.	.	1A	e-	1A	-ri-	.	.
=45	=45	=45	=45	=45	=45	=45	=45
0.r	.	1G	-le-	0d	-e	0d	Ky-
.	.	0F	-i-	.	.	.	.
.	.	.	.	1d	e-	1d	-ri-
=46	=46	=46	=46	=46	=46	=46	=46
0.r	.	0.E	-son.	1c	-le-	0g	-e
.	.	.	.	0B	-i-	.	.
.	.	.	.	.	.	1g	e-
=47	=47	=47	=47	=47	=47	=47	=47
0AA	Ky-	0.r	.	0A	-son.	1f	-le-
.	.	.	.	.	.	0e	-i-
1AA	-ri-	.	.	2r	.	.	.
.	.	.	.	[2A/	e-	.	.
=48	=48	=48	=48	=48	=48	=48	=48
0D	-e	0.r	.	4A/]	.	0d	-son.
.	.	.	.	4G/	.	.	.
.	.	.	.	4F/	.	.	.
.	.	.	.	4E/	.	.	.
.	.	.	.	2D/	.	.	.
.	.	.	.	1A	.	.	.
1D	e-	.	.	.	.	1f	Ky-
.	.	.	.	2B\	.	.	.
=49	=49	=49	=49	=49	=49	=49	=49
1C	-le-	1r	.	2c\	-le-	1e	.
.	.	.	.	1A	.	.	.
0BB	-i-	1B	Ky-	.	.	2.d/	-ri-
.	.	.	.	4G/	.	.	.
.	.	.	.	4F/	.	4c/	.
.	.	1B	-ri-	2G/	.	1d	.
.	.	.	.	4F/	-i-	.	.
.	.	.	.	4G/	.	.	.
=50	=50	=50	=50	=50	=50	=50	=50
0AA	-son.	0E	-e	0A	-son.	1c	-e
.	.	.	.	.	.	4c/	e-
.	.	.	.	.	.	4d/	.
.	.	.	.	.	.	4e/	.
.	.	.	.	.	.	4f/	.
1r	.	1B	Ky-	1E	.	1g	.
=51	=51	=51	=51	=51	=51	=51	=51
1E	Ky-	1B	-ri-	1r	.	2.g/	.
.	.	.	.	.	.	4a/	.
1E	-ri-	0E	-e	1e	Ky-	2b\	.
.	.	.	.	.	.	2.cc\	-le-
[1AA	-e	.	.	1e	-ri-	.	.
.	.	.	.	.	.	4b\	.
.	.	.	.	.	.	[2a/	.
=52	=52	=52	=52	=52	=52	=52	=52
0AA]	.	1r	.	1A	-e	2a/]	.
.	.	.	.	.	.	4g/	.
.	.	.	.	.	.	4f/	.
.	.	1A	Ky-	2.c\	e-	1e	.
.	.	.	.	4B\	.	.	.
2r	.	1A	-ri-	2c\	.	1a	.
[2D\	Ky-	.	.	[2d\	-le-	.	.
=53	=53	=53	=53	=53	=53	=53	=53
4D\]	.	1D	-e	4d\]	.	1a	-i-
4E\	.	.	.	4c\	.	.	.
2F\	-ri-	.	.	4B\	.	.	.
.	.	.	.	4A/	.	.	.
1G	-e	1r	.	1B	-i-	0d	-son.
2D\	e-	2r	.	[1A	-son.	.	.
[2F\	-le-	[2D/	Ky-	.	.	.	.
=54	=54	=54	=54	=54	=54	=54	=54
4F\]	.	4D/]	.	1A]	.	0.r	.
4E\	.	4E/	.	.	.	.	.
2D\	.	2F/	.	.	.	.	.
2C/	.	2.G/	-ri-	1e	Ky-	.	.
2.E\	.	.	.	.	.	.	.
.	.	4A/	.	.	.	.	.
.	.	2B\	.	1e	-ri-	.	.
4D\	.	.	.	.	.	.	.
4C/	.	[2c\	-e	.	.	.	.
4BB/	.	.	.	.	.	.	.
=55	=55	=55	=55	=55	=55	=55	=55
1C	.	4c\]	.	1e	-e	1r	.
.	.	4B\	.	.	.	.	.
.	.	4A/	.	.	.	.	.
.	.	4G/	.	.	.	.	.
0D	.	1.F	e-	0d	le-	1a	Ky-
.	.	.	.	.	.	1a	-ri-
.	.	2D/	.	.	.	.	.
=56	=56	=56	=56	=56	=56	=56	=56
1AA	-i-	2E/	.	1c	.	1a	-e
.	.	2F/	.	.	.	.	.
0E	-son.	0G	-le-	2.B\	.	0g	le-
.	.	.	.	4A/	.	.	.
.	.	.	.	1B	.	.	.
=57	=57	=57	=57	=57	=57	=57	=57
0.r	.	1D	.	2.A/	.	1f	.
.	.	.	.	4B\	.	.	.
.	.	2A/	.	2c\	.	2e/	.
.	.	2B\	-i-	1d	.	2d/	.
.	.	1A	-son.	.	.	1e	-i-
.	.	.	.	2c#i\	-i-	.	.
=58	=58	=58	=58	=58	=58	=58	=58
1D	Ky-	1r	.	0d	-son.	1d	-son.
0G	.	1B	Ky-	.	.	2r	.
.	.	.	.	.	.	1d	Ky-
.	.	1B	-ri-	1r	.	.	.
.	.	.	.	.	.	[2g/	-ri-
=59	=59	=59	=59	=59	=59	=59	=59
1GG	-ri-	1B	-e	1r	.	4g/]	.
.	.	.	.	.	.	4f/	.
.	.	.	.	.	.	4e/	.
.	.	.	.	.	.	4d/	.
1.AA	-e	0A	le-	1e	Ky-	0c	-e
.	.	.	.	1e	-ri-	.	.
2BB/	.	.	.	.	.	.	.
=60	=60	=60	=60	=60	=60	=60	=60
1C	le-	1G	.	1e	-e	1c	e-
0D	-i-	0F	-i-	0d	le-	2.f/	-le-
.	.	.	.	.	.	4g/	.
.	.	.	.	.	.	2a/	.
.	.	.	.	.	.	2b\	.
=61	=61	=61	=61	=61	=61	=61	=61
1AA	-son.	[0.E	-son.	1c	.	2cc\	.
.	.	.	.	.	.	4b\	.
.	.	.	.	.	.	4a/	.
2r	.	.	.	2B\	.	2g/	.
2AA/	Ky-	.	.	2A/	.	1a	.
1E	.	.	.	1B	-i-	.	.
.	.	.	.	.	.	2g#i/	-i-
=62	=62	=62	=62	=62	=62	=62	=62
0AA	-ri-	0.E_	.	0A	-son.	0a	-son.
1AA	-e	.	.	1c	Ky-	1r	.
=63	=63	=63	=63	=63	=63	=63	=63
1E	Ky-	1E]	.	1B	.	2.g/	Ky-
.	.	.	.	.	.	4a/	.
1E	-ri-	1r	.	2.G/	.	2b\	.
.	.	.	.	.	.	2cc\	-ri-
.	.	.	.	4A/	.	.	.
1E	-e	1r	.	2B\	.	2b\	-e
.	.	.	.	[2c\	.	2g/	.
=64	=64	=64	=64	=64	=64	=64	=64
0D	le-	0.r	.	2c\]	.	2r	.
.	.	.	.	2B\	.	2.d/	Ky-
.	.	.	.	2A/	.	.	.
.	.	.	.	.	.	4e/	.
.	.	.	.	4G/	.	2f/	-ri-
.	.	.	.	4F/	.	.	.
1C	.	.	.	2.E/	.	1g	-e
.	.	.	.	4F/	.	.	.
=65	=65	=65	=65	=65	=65	=65	=65
2BB/	.	0.r	.	2G/	.	1r	.
2AA/	.	.	.	1A	.	.	.
1BB	-i-	.	.	.	.	1b	Ky-
.	.	.	.	2G#i/	-ri-	.	.
[1AA	-son.	.	.	1A	-e	[1cc	-ri-
=66	=66	=66	=66	=66	=66	=66	=66
1AA]	.	1r	.	1e	Ky-	2cc\]	.
.	.	.	.	.	.	4b\	.
.	.	.	.	.	.	4a/	.
1E	Ky-	1B	Ky-	1e	-ri-	0g	-e
2.E\	-ri-	1B	-ri-	1e	-e	.	.
4F\	.	.	.	.	.	.	.
=67	=67	=67	=67	=67	=67	=67	=67
1G	.	1B	-e	0d	le-	1g	e-
2.D\	-e	0A	le-	.	.	2.f/	-le-
8C/L	.	.	.	.	.	4d/	.
8BB/J	.	.	.	.	.	.	.
1AA	.	.	.	1c	.	2e/	.
.	.	.	.	.	.	2f/	.
=68	=68	=68	=68	=68	=68	=68	=68
1E	e-	1G	.	1B	.	2g/	.
.	.	.	.	.	.	4f/	.
.	.	.	.	.	.	4e/	.
2F\	.	2F/	.	0A	-i-	2d/	.
2C/	.	2E/	.	.	.	1e	.
1D	.	1F	-i-	.	.	.	.
.	.	.	.	.	.	2d/	-i-
=69	=69	=69	=69	=69	=69	=69	=69
2r	.	0.El	-son.	0.Bl	-son.	0.el	-son.
1G	-le-	.	.	.	.	.	.
2E\	-i-	.	.	.	.	.	.
1El	-son.	.	.	.	.	.	.
==	==	==	==	==	==	==	==
*-	*-	*-	*-	*-	*-	*-	*-
!!!RDF**kern: l=long note in original notation
!!!RDF**kern: i=editorial accidental
!!!RDF**kern: V=start of tuplet marker
!!!RDF**kern: Z=end of tuplet marker
!!!ENC:	Jesse Rodin; Victoria Chang 2012/02/27
!!!END:	2012/02/27/
!!!EED:	Jesse Rodin
!!!EEV:	2012/06/27/
!!attribution-level@Jos: 5 (doubtful)
!!!ONB:	Translated from MusicXML and edited on 2012/06/27/ by Craig Sapp
!!muse2ps: T^@{OPR}^u^@{ONM}{. }@{OTL}^C^Comp&egrave;re/Josquin?\n@{SCT}^i2I150v85,85,85,130Q16
